src/components/WarCrimes/icons/crimes/forced-pregnancy.svg

<?xml version="1.0" encoding="UTF-8" standalone="no"?>
<svg width="55px" height="133px" viewBox="0 0 55 133" version="1.1" xmlns="http://www.w3.org/2000/svg" xmlns:xlink="http://www.w3.org/1999/xlink">
    <!-- Generator: Sketch 41.2 (35397) - http://www.bohemiancoding.com/sketch -->
    <title>Forced pregnancy</title>
    <desc>Created with Sketch.</desc>
    <defs></defs>
    <g id="Page-1" stroke="none" stroke-width="1" fill="none" fill-rule="evenodd">
        <g id="Forced-pregnancy" fill="#FFFFFF">
            <g id="forced-pregnancy" transform="translate(2.000000, 2.000000)">
                <g id="Group">
                    <path d="M50.57,39.0531128 C50.57,31.1069261 46.3766148,23.3221012 37.0828794,23.3221012 L23.4111284,23.3221012 C14.6470039,23.7520623 10.6792218,31.3244358 10.6792218,39.0536187 L10.6761868,43.2176654 C-1.66116732,46.1975486 0.0849805447,69.0982879 0.0849805447,76.1901167 L0.0849805447,85.5470817 L15.7391051,85.5470817 L15.7421401,123.98358 C15.7421401,131.367782 26.8027626,131.367782 26.8027626,123.98358 L26.7971984,85.5470817 L31.2864981,85.5470817 L31.2864981,124.045798 C31.2864981,131.330856 42.3000778,131.367782 42.3000778,124.045798 L42.3000778,85.5470817 L44.6911673,85.5470817 L44.6911673,81.9500778 C41.9354839,81.25 40.0241069,79.139144 40.0241069,75.2715175 L40.0155077,40.0663035 L41.2226459,40.0663035 L41.2226459,75.2715175 C41.2226459,78.8629572 43.5697276,80.6617121 45.911751,80.6617121 C48.2552918,80.6617121 50.5922568,78.8624514 50.5831518,75.2715175 L50.5831518,43.3658755 L50.57,39.0531128 Z" id="Shape"></path>
                    <ellipse id="Oval" cx="28.8559533" cy="9.93715953" rx="9.93715953" ry="9.93715953"></ellipse>
                </g>
            </g>
        </g>
    </g>
</svg>

<svg width="55" height="133" viewBox="0 0 55 133" xmlns="http://www.w3.org/2000/svg"><title>Forced pregnancy</title><g transform="translate(2 2)" fill="#FFF" fill-rule="evenodd"><path d="M50.57 39.053c0-7.946-4.193-15.73-13.487-15.73H23.41c-8.764.43-12.732 8.001-12.732 15.73l-.003 4.165C-1.66 46.198.085 69.098.085 76.19v9.357h15.654l.003 38.437c0 7.384 11.06 7.384 11.06 0l-.005-38.437h4.49v38.499c0 7.285 11.013 7.322 11.013 0V85.547h2.391V81.95c-2.756-.7-4.667-2.81-4.667-6.678l-.008-35.206h1.207v35.206c0 3.591 2.347 5.39 4.689 5.39 2.343 0 4.68-1.8 4.671-5.39V43.366l-.013-4.313z"/><ellipse cx="28.856" cy="9.937" rx="9.937" ry="9.937"/></g></svg>
